Newaita-dark/.DP/22/skype-indicator.svg

<svg xmlns="http://www.w3.org/2000/svg" xmlns:xlink="http://www.w3.org/1999/xlink" width="22px" height="22px" viewBox="0 0 22 22" version="1.1">
<g id="surface1">
<path style=" stroke:none;fill-rule:nonzero;fill:rgb(93.333334%,93.333334%,93.333334%);fill-opacity:1;" d="M 7.375 2.886719 C 5.21875 2.886719 3.484375 4.621094 3.484375 6.777344 C 3.484375 7.429688 3.644531 8.039062 3.925781 8.578125 C 3.640625 9.363281 3.484375 10.210938 3.484375 11.097656 C 3.484375 15.167969 6.761719 18.441406 10.832031 18.441406 C 11.148438 18.441406 11.460938 18.421875 11.769531 18.382812 C 12.445312 18.960938 13.324219 19.308594 14.289062 19.308594 C 16.441406 19.308594 18.175781 17.574219 18.175781 15.417969 C 18.175781 14.765625 18.019531 14.152344 17.738281 13.617188 C 18.023438 12.828125 18.175781 11.984375 18.175781 11.097656 C 18.175781 7.027344 14.902344 3.75 10.832031 3.75 C 10.511719 3.75 10.203125 3.773438 9.894531 3.808594 C 9.21875 3.234375 8.335938 2.886719 7.375 2.886719 Z M 12.734375 7.070312 L 13.644531 7.070312 C 13.652344 7.070312 13.660156 7.070312 13.667969 7.074219 C 13.675781 7.074219 13.683594 7.074219 13.6875 7.074219 C 13.691406 7.074219 13.691406 7.074219 13.695312 7.074219 C 13.699219 7.074219 13.707031 7.078125 13.710938 7.078125 C 13.710938 7.078125 13.714844 7.078125 13.714844 7.078125 C 13.722656 7.078125 13.726562 7.082031 13.734375 7.082031 C 13.742188 7.082031 13.75 7.085938 13.753906 7.085938 C 13.757812 7.085938 13.757812 7.089844 13.761719 7.089844 C 13.765625 7.089844 13.773438 7.089844 13.773438 7.089844 C 13.777344 7.089844 13.78125 7.09375 13.78125 7.09375 C 13.789062 7.09375 13.792969 7.097656 13.800781 7.101562 C 13.8125 7.105469 13.828125 7.109375 13.839844 7.117188 C 13.847656 7.121094 13.855469 7.125 13.859375 7.128906 C 13.867188 7.132812 13.875 7.132812 13.878906 7.136719 C 13.886719 7.140625 13.894531 7.148438 13.898438 7.152344 C 13.902344 7.152344 13.90625 7.152344 13.90625 7.15625 C 13.910156 7.160156 13.917969 7.164062 13.921875 7.167969 C 13.921875 7.167969 13.925781 7.171875 13.929688 7.171875 C 13.933594 7.175781 13.9375 7.179688 13.941406 7.183594 C 13.945312 7.183594 13.945312 7.1875 13.945312 7.1875 C 13.953125 7.195312 13.960938 7.199219 13.964844 7.207031 C 13.96875 7.210938 13.976562 7.214844 13.980469 7.21875 C 13.984375 7.226562 13.988281 7.230469 13.996094 7.238281 C 14 7.242188 14.003906 7.25 14.007812 7.253906 C 14.015625 7.265625 14.027344 7.277344 14.03125 7.289062 C 14.035156 7.296875 14.039062 7.304688 14.042969 7.308594 C 14.046875 7.3125 14.046875 7.316406 14.046875 7.316406 C 14.050781 7.324219 14.054688 7.335938 14.058594 7.34375 C 14.0625 7.347656 14.0625 7.347656 14.0625 7.347656 C 14.066406 7.355469 14.070312 7.363281 14.070312 7.371094 C 14.074219 7.386719 14.082031 7.398438 14.085938 7.414062 C 14.085938 7.421875 14.089844 7.429688 14.089844 7.433594 C 14.089844 7.441406 14.09375 7.449219 14.09375 7.457031 C 14.09375 7.464844 14.09375 7.472656 14.09375 7.480469 C 14.097656 7.480469 14.097656 7.480469 14.097656 7.480469 C 14.097656 7.488281 14.097656 7.496094 14.097656 7.503906 C 14.097656 7.511719 14.097656 7.519531 14.097656 7.527344 L 14.097656 8.4375 C 14.097656 8.6875 13.894531 8.890625 13.644531 8.890625 L 13.191406 8.890625 C 12.9375 8.890625 12.734375 8.6875 12.734375 8.4375 L 9.550781 8.4375 C 9.300781 8.4375 9.09375 8.640625 9.09375 8.890625 L 9.09375 9.800781 C 9.09375 10.054688 9.300781 10.253906 9.550781 10.253906 L 13.644531 10.253906 C 13.894531 10.253906 14.097656 10.460938 14.097656 10.710938 L 14.097656 14.351562 C 14.097656 14.601562 13.894531 14.804688 13.644531 14.804688 L 8.1875 14.804688 C 8.171875 14.804688 8.15625 14.804688 8.140625 14.800781 C 8.132812 14.800781 8.125 14.800781 8.117188 14.800781 C 8.109375 14.796875 8.101562 14.796875 8.089844 14.792969 C 8.089844 14.792969 8.085938 14.792969 8.082031 14.792969 C 8.078125 14.789062 8.070312 14.789062 8.066406 14.789062 C 8.0625 14.785156 8.058594 14.785156 8.054688 14.785156 C 8.050781 14.78125 8.046875 14.78125 8.039062 14.78125 C 8.035156 14.78125 8.035156 14.777344 8.035156 14.777344 C 8.023438 14.773438 8.015625 14.773438 8.007812 14.769531 C 8.003906 14.765625 7.996094 14.761719 7.988281 14.761719 C 7.96875 14.75 7.949219 14.738281 7.929688 14.726562 C 7.925781 14.722656 7.917969 14.71875 7.910156 14.710938 C 7.910156 14.710938 7.90625 14.707031 7.90625 14.707031 C 7.902344 14.703125 7.894531 14.699219 7.890625 14.695312 C 7.890625 14.695312 7.886719 14.691406 7.882812 14.691406 C 7.882812 14.6875 7.875 14.683594 7.871094 14.679688 C 7.871094 14.675781 7.867188 14.675781 7.867188 14.671875 C 7.863281 14.667969 7.855469 14.660156 7.847656 14.65625 C 7.835938 14.640625 7.820312 14.621094 7.808594 14.605469 C 7.804688 14.597656 7.800781 14.589844 7.796875 14.585938 C 7.789062 14.574219 7.78125 14.558594 7.777344 14.546875 C 7.773438 14.539062 7.769531 14.535156 7.769531 14.527344 C 7.765625 14.527344 7.765625 14.523438 7.765625 14.523438 C 7.761719 14.519531 7.761719 14.515625 7.761719 14.511719 C 7.757812 14.507812 7.757812 14.503906 7.757812 14.503906 C 7.757812 14.496094 7.753906 14.492188 7.753906 14.484375 C 7.75 14.476562 7.75 14.472656 7.746094 14.464844 C 7.746094 14.460938 7.746094 14.460938 7.746094 14.460938 C 7.742188 14.457031 7.742188 14.449219 7.742188 14.445312 C 7.742188 14.441406 7.742188 14.441406 7.738281 14.4375 C 7.738281 14.433594 7.738281 14.425781 7.734375 14.417969 C 7.734375 14.414062 7.734375 14.40625 7.734375 14.398438 C 7.734375 14.394531 7.734375 14.394531 7.734375 14.390625 C 7.734375 14.386719 7.734375 14.382812 7.734375 14.375 C 7.734375 14.375 7.734375 14.375 7.734375 14.371094 C 7.734375 14.363281 7.730469 14.355469 7.730469 14.351562 L 7.730469 13.441406 C 7.730469 13.1875 7.933594 12.984375 8.1875 12.984375 L 8.640625 12.984375 C 8.894531 12.984375 9.09375 13.1875 9.09375 13.441406 L 12.28125 13.441406 C 12.53125 13.441406 12.734375 13.234375 12.734375 12.984375 L 12.734375 12.074219 C 12.734375 11.824219 12.53125 11.621094 12.28125 11.621094 L 8.1875 11.621094 C 7.933594 11.621094 7.730469 11.417969 7.730469 11.167969 L 7.730469 7.527344 C 7.730469 7.277344 7.933594 7.070312 8.1875 7.070312 Z M 12.734375 7.070312 "/>
</g>
</svg>

<svg xmlns="http://www.w3.org/2000/svg" width="22pt" height="22pt" viewBox="0 0 22 22"><path d="M7.375 2.887a3.881 3.881 0 0 0-3.89 3.89c0 .653.16 1.266.44 1.801a7.363 7.363 0 0 0-.44 2.52 7.329 7.329 0 0 0 7.347 7.343c.316 0 .629-.02.934-.058.68.578 1.558.926 2.523.926a3.88 3.88 0 0 0 3.887-3.891c0-.652-.156-1.266-.438-1.805a7.322 7.322 0 0 0 .438-2.515 7.329 7.329 0 0 0-7.344-7.348c-.316 0-.629.023-.937.059a3.883 3.883 0 0 0-2.52-.922zm5.36 4.187H13.694c.004 0 .008.004.016.004h.004c.008 0 .015.004.02.004.007 0 .015.004.023.004h.004c.004.004.008.004.015.008h.004c.008 0 .012.004.02.008a.117.117 0 0 1 .039.015l.02.012a.03.03 0 0 1 .019.008c.008.004.016.011.023.015l.004.004.016.012c.004 0 .004.004.008.004l.011.012c.004 0 .004.003.008.003.004.008.012.012.016.02a.03.03 0 0 1 .015.016c.004.004.012.007.016.015l.012.016c.008.012.02.023.023.039l.012.016a.012.012 0 0 1 .004.007l.012.028c.004.004.004.004.004.008a.03.03 0 0 1 .007.02c.008.01.012.026.016.042 0 .008.004.016.004.02 0 .007.004.015.004.023s0 .016.004.023V8.437c0 .25-.203.454-.453.454h-.457a.453.453 0 0 1-.454-.454H9.551a.451.451 0 0 0-.453.454v.91c0 .254.199.457.453.457h4.094c.25 0 .453.199.453.453v3.637a.454.454 0 0 1-.453.457H8.188c-.016 0-.032 0-.047-.004-.008 0-.016 0-.024-.004-.008 0-.02 0-.027-.004h-.004c-.008 0-.016-.004-.02-.004-.004-.004-.007-.004-.007-.004-.008 0-.012-.004-.02-.004 0-.004-.004-.004-.008-.004-.008-.004-.015-.004-.023-.007-.004-.004-.012-.008-.02-.012a.249.249 0 0 1-.054-.031.082.082 0 0 1-.024-.016l-.004-.004-.015-.012-.004-.004c-.008-.004-.012-.007-.016-.011 0-.004-.004-.004-.004-.008-.008-.004-.012-.012-.02-.016l-.038-.05a.085.085 0 0 0-.012-.02.182.182 0 0 1-.02-.04c-.004-.007-.007-.01-.007-.019-.004 0-.004-.004-.004-.004 0-.003-.004-.007-.004-.011 0-.004-.004-.008-.004-.008 0-.008-.004-.012-.008-.02 0-.007-.004-.011-.004-.02v-.003c-.004-.008-.004-.012-.004-.016v-.008c-.004-.003-.004-.011-.004-.019-.004-.008-.004-.012-.004-.02v-.007c0-.004 0-.008-.004-.016v-.004-.93c0-.254.204-.457.457-.457h.454c.254 0 .457.204.457.457h3.183c.25 0 .453-.203.453-.457v-.91a.453.453 0 0 0-.453-.453H8.187a.455.455 0 0 1-.457-.457V7.527c0-.254.204-.453.457-.453zm0 0" fill="#bdbdbd"/></svg>
